symbolic/64x64/apps/etr.svg

<svg xmlns="http://www.w3.org/2000/svg" width="64" height="64" version="1">
 <path style="opacity:0.2" d="M 60,33 A 28,28 0 0 1 32,61 28,28 0 0 1 4,33 28,28 0 0 1 32,5 28,28 0 0 1 60,33 Z"/>
 <path style="fill:#72a0d1;stroke:#000000;stroke-width:0;stroke-linecap:round;stroke-linejoin:round" d="m 49.076172,24.935344 -5.408594,3.171875 -2.540235,1.490234 A 2.80028,2.80028 0 0 1 37.660157,29.08886 C 35.66661,26.944757 31.089045,24.998235 25.7,24.998235 c -3.985342,0 -7.555311,1.016377 -9.928516,2.460936 C 13.39828,28.903733 12.4,30.535054 12.4,31.998235 c 0,1.46318 0.99828,3.094502 3.371484,4.539063 2.373205,1.444559 5.943174,2.460937 9.928516,2.460937 5.389045,0 9.966613,-1.946523 11.960157,-4.090625 a 2.80028,2.80028 0 0 1 3.467186,-0.508594 l 2.540235,1.490234 5.408594,3.171875 c -0.05233,-0.13909 -0.05405,-0.11326 -0.106638,-0.257031 C 48.225934,36.770938 47.4,34.421679 47.4,31.998235 c 0,-2.423445 0.825891,-4.773317 1.569532,-6.80586 0.05261,-0.143813 0.05426,-0.117894 0.106638,-0.257031 z"/>
 <path style="fill:#d76337" d="M 60,32 A 28,28 0 0 1 32,60 28,28 0 0 1 4,32 28,28 0 0 1 32,4 28,28 0 0 1 60,32 Z"/>
 <path style="opacity:0.2" d="m 50.697359,22.000855 c -0.308529,0.0096 -0.608217,0.098 -0.875384,0.255097 l -7.757633,4.551466 -2.49458,1.463451 C 36.854895,25.350969 31.715988,23 25.81064,23 17.078665,23 10,27.684448 10,32.999561 10,38.314673 17.078665,43 25.81064,43 c 5.905348,0 11.044254,-2.351848 13.759122,-5.271748 l 2.49458,1.463451 7.757633,4.551466 C 51.065978,44.47251 53.000102,43.561836 53,42.102493 c 0,0 -3,-5.933492 -3,-9.102932 0,-3.169441 3,-9.100249 3,-9.100249 6.98e-4,-1.069691 -1.250351,-1.930272 -2.302641,-1.898457 z"/>
 <path style="fill:#142f56" d="M 50.697266 21 C 50.388737 21.0096 50.089433 21.09876 49.822266 21.255859 L 42.064453 25.806641 L 39.570312 27.271484 C 36.855446 24.351584 31.715895 22 25.810547 22 C 17.078572 22 10 26.684887 10 32 C 10 37.315112 17.078572 42 25.810547 42 C 31.715895 42 36.855444 39.648416 39.570312 36.728516 L 42.064453 38.191406 L 49.822266 42.744141 C 51.066269 43.473482 53.000102 42.560905 53 41.101562 C 53 41.101562 50 35.16944 50 32 C 50 28.830559 53 22.898438 53 22.898438 C 53.000698 21.828747 51.749556 20.968185 50.697266 21 z"/>
 <path style="fill:#8dc6ff" d="M 25.810547 26 C 22.159921 26 18.893784 27.023982 16.791016 28.373047 C 14.688248 29.722112 14 31.118153 14 32 C 14 32.881846 14.688248 34.277888 16.791016 35.626953 C 18.893784 36.976018 22.159921 38 25.810547 38 C 30.653995 38 34.910761 35.86451 36.640625 34.003906 A 4.0004 4.0004 0 0 1 41.59375 33.277344 L 44.087891 34.740234 A 4.0004 4.0004 0 0 0 44.089844 34.742188 L 46.722656 36.287109 C 46.315377 34.982546 46 33.586949 46 32 C 46 30.412309 46.315086 29.015999 46.722656 27.710938 L 44.089844 29.255859 L 41.595703 30.720703 A 4.0004 4.0004 0 0 1 36.640625 29.996094 C 34.910717 28.135539 30.653995 26 25.810547 26 z"/>
 <path style="fill:#ffffff;opacity:0.2" d="M 32 4 A 28 28 0 0 0 4 32 A 28 28 0 0 0 4.0214844 32.585938 A 28 28 0 0 1 32 5 A 28 28 0 0 1 59.978516 32.414062 A 28 28 0 0 0 60 32 A 28 28 0 0 0 32 4 z"/>
</svg>

<svg xmlns="http://www.w3.org/2000/svg" width="64" height="64" version="1"><path style="opacity:.2" d="M60 33a28 28 0 0 1-28 28A28 28 0 0 1 4 33 28 28 0 0 1 32 5a28 28 0 0 1 28 28z"/><path style="fill:#72a0d1;stroke:#000;stroke-width:0;stroke-linecap:round;stroke-linejoin:round" d="m49.076 24.935-5.408 3.172-2.54 1.49a2.8 2.8 0 0 1-3.468-.508c-1.993-2.144-6.571-4.09-11.96-4.09-3.985 0-7.555 1.016-9.929 2.46C13.398 28.904 12.4 30.535 12.4 32c0 1.462.998 3.094 3.371 4.538 2.374 1.445 5.944 2.461 9.929 2.461 5.389 0 9.967-1.946 11.96-4.09a2.8 2.8 0 0 1 3.467-.509l2.54 1.49 5.41 3.172c-.053-.139-.055-.113-.107-.257-.744-2.033-1.57-4.382-1.57-6.806 0-2.423.826-4.773 1.57-6.806.052-.143.054-.118.106-.257z"/><path style="fill:#d76337" d="M60 32a28 28 0 0 1-28 28A28 28 0 0 1 4 32 28 28 0 0 1 32 4a28 28 0 0 1 28 28z"/><path style="opacity:.2" d="M50.697 22c-.308.01-.608.099-.875.256l-7.758 4.551-2.494 1.464C36.855 25.35 31.716 23 25.81 23 17.08 23 10 27.684 10 33c0 5.315 7.079 10 15.81 10 5.906 0 11.045-2.352 13.76-5.272l2.494 1.464 7.758 4.551c1.244.73 3.178-.181 3.178-1.64 0 0-3-5.934-3-9.103 0-3.17 3-9.1 3-9.1 0-1.07-1.25-1.931-2.303-1.9z"/><path style="fill:#142f56" d="M50.697 21c-.308.01-.608.099-.875.256l-7.758 4.55-2.494 1.465C36.855 24.351 31.716 22 25.81 22 17.08 22 10 26.685 10 32s7.079 10 15.81 10c5.906 0 11.045-2.352 13.76-5.271l2.494 1.462 7.758 4.553c1.244.73 3.178-.183 3.178-1.642 0 0-3-5.933-3-9.102 0-3.17 3-9.102 3-9.102 0-1.07-1.25-1.93-2.303-1.898z"/><path style="fill:#8dc6ff" d="M25.81 26c-3.65 0-6.916 1.024-9.019 2.373C14.688 29.723 14 31.118 14 32c0 .882.688 2.278 2.791 3.627C18.894 36.976 22.16 38 25.811 38c4.843 0 9.1-2.135 10.83-3.996a4 4 0 0 1 4.953-.727l2.494 1.463a4 4 0 0 0 .002.002l2.633 1.545C46.315 34.983 46 33.587 46 32c0-1.588.315-2.984.723-4.29l-2.633 1.546-2.494 1.465a4 4 0 0 1-4.955-.725C34.91 28.136 30.654 26 25.81 26z"/><path style="fill:#fff;opacity:.2" d="M32 4A28 28 0 0 0 4 32a28 28 0 0 0 .021.586A28 28 0 0 1 32 5a28 28 0 0 1 27.979 27.414A28 28 0 0 0 60 32 28 28 0 0 0 32 4z"/></svg>
